src/assets/icons/itbkk-logo.svg

<svg width="16" height="16" viewBox="0 0 16 16" fill="none" xmlns="http://www.w3.org/2000/svg">
<rect y="2.00659" width="2.79893" height="12.5195" rx="1.39947" fill="#F04C1C"/>
<path d="M7.26887 12.1378C7.81539 12.6843 7.81539 13.5704 7.26887 14.1169C6.72234 14.6635 5.83625 14.6635 5.28972 14.1169L1.41532 10.2425L0.422101 9.24933C-0.124424 8.7028 -0.124424 7.81671 0.422101 7.27018C0.968626 6.72366 1.85472 6.72366 2.40124 7.27018L7.26887 12.1378Z" fill="#F04C1C"/>
<path d="M7.26887 4.38904L2.40124 9.25666C1.85596 9.80194 1.85473 10.6852 2.39753 11.2321L0.422111 9.24935C0.149276 8.97651 0.012645 8.61905 0.0122183 8.26146C0.0136422 7.90518 0.15027 7.54935 0.422101 7.27752L5.28972 2.40989C5.83625 1.86337 6.72234 1.86337 7.26887 2.40989C7.81539 2.95642 7.81539 3.84251 7.26887 4.38904Z" fill="#F04C1C"/>
<rect x="16" y="14.5203" width="2.79893" height="12.5195" rx="1.39947" transform="rotate(-180 16 14.5203)" fill="#F04C1C"/>
<path d="M8.73114 4.38905C8.18461 3.84252 8.18461 2.95643 8.73114 2.40991C9.27766 1.86338 10.1638 1.86338 10.7103 2.40991L14.5847 6.28431L15.5779 7.27753C16.1244 7.82405 16.1244 8.71015 15.5779 9.25667C15.0314 9.8032 14.1453 9.8032 13.5988 9.25667L8.73114 4.38905Z" fill="#F04C1C"/>
<path d="M8.73113 12.1378L13.5988 7.2702C14.144 6.72491 14.1453 5.84161 13.6025 5.29479L15.5779 7.27751C15.8507 7.55034 15.9874 7.9078 15.9878 8.2654C15.9864 8.62167 15.8497 8.97751 15.5779 9.24934L10.7103 14.117C10.1638 14.6635 9.27766 14.6635 8.73113 14.117C8.18461 13.5704 8.18461 12.6843 8.73113 12.1378Z" fill="#F04C1C"/>
</svg>

<svg xmlns="http://www.w3.org/2000/svg" width="16" height="16" fill="none"><rect width="2.8" height="12.52" y="2.01" fill="#F04C1C" rx="1.4"/><path fill="#F04C1C" d="M7.27 12.14a1.4 1.4 0 1 1-1.98 1.98l-3.87-3.88-1-1A1.4 1.4 0 0 1 2.4 7.28l4.87 4.87Z"/><path fill="#F04C1C" d="M7.27 4.39 2.4 9.26a1.4 1.4 0 0 0 0 1.97L.42 9.25a1.4 1.4 0 0 1 0-1.97L5.3 2.4a1.4 1.4 0 0 1 1.98 1.98Z"/><rect width="2.8" height="12.52" x="16" y="14.52" fill="#F04C1C" rx="1.4" transform="rotate(-180 16 14.52)"/><path fill="#F04C1C" d="M8.73 4.39a1.4 1.4 0 1 1 1.98-1.98l3.87 3.87 1 1a1.4 1.4 0 0 1-1.98 1.98L8.73 4.39Z"/><path fill="#F04C1C" d="m8.73 12.14 4.87-4.87a1.4 1.4 0 0 0 0-1.98l1.98 1.99a1.4 1.4 0 0 1 0 1.97l-4.87 4.87a1.4 1.4 0 0 1-1.98-1.98Z"/></svg>
